X:1
T:Union Quickstep
T:CCDB
B:CCDB
M:2/4
L:1/8
Q:1/8=180
K:D t=8
|: ((3A/B/c/)|ddd c/d/|e/c/A/c/ ee|d/c/B/c/ A/c/e/c/|d d/f/ aa/f/|
ddd c/d/|e/c/A/c/ ee|d/c/B/c/ A/c/e/c/|dfd :|
|: A|gg g/f/e/d/|ff f/e/d/c/|ee ed/e/|f2-fa/f/|
ddd c/d/|e/c/A/c/ ee|d/c/B/c/ A/c/e/c/|dfd :|
